svg/system/wastebasket_fill.svg

<?xml version="1.0" encoding="UTF-8"?>
<svg width="24px" height="24px" viewBox="0 0 24 24" version="1.1" xmlns="http://www.w3.org/2000/svg" xmlns:xlink="http://www.w3.org/1999/xlink">
    <title>wastebasket_fill</title>
    <g id="页面-1" stroke="none" stroke-width="1" fill="none" fill-rule="evenodd">
        <g id="System" transform="translate(-816.000000, -240.000000)">
            <g id="wastebasket_fill" transform="translate(816.000000, 240.000000)">
                 <path d="M24,0 L24,24 L0,24 L0,0 L24,0 Z M12.5934901,23.257841 L12.5819402,23.2595131 L12.5108777,23.2950439 L12.4918791,23.2987469 L12.4918791,23.2987469 L12.4767152,23.2950439 L12.4056548,23.2595131 C12.3958229,23.2563662 12.3870493,23.2590235 12.3821421,23.2649074 L12.3780323,23.275831 L12.360941,23.7031097 L12.3658947,23.7234994 L12.3769048,23.7357139 L12.4804777,23.8096931 L12.4953491,23.8136134 L12.4953491,23.8136134 L12.5071152,23.8096931 L12.6106902,23.7357139 L12.6232938,23.7196733 L12.6232938,23.7196733 L12.6266527,23.7031097 L12.609561,23.275831 C12.6075724,23.2657013 12.6010112,23.2592993 12.5934901,23.257841 L12.5934901,23.257841 Z M12.8583906,23.1452862 L12.8445485,23.1473072 L12.6598443,23.2396597 L12.6498822,23.2499052 L12.6498822,23.2499052 L12.6471943,23.2611114 L12.6650943,23.6906389 L12.6699349,23.7034178 L12.6699349,23.7034178 L12.678386,23.7104931 L12.8793402,23.8032389 C12.8914285,23.8068999 12.9022333,23.8029875 12.9078286,23.7952264 L12.9118235,23.7811639 L12.8776777,23.1665331 C12.8752882,23.1545897 12.8674102,23.1470016 12.8583906,23.1452862 L12.8583906,23.1452862 Z M12.1430473,23.1473072 C12.1332178,23.1423925 12.1221763,23.1452606 12.1156365,23.1525954 L12.1099173,23.1665331 L12.0757714,23.7811639 C12.0751323,23.7926639 12.0828099,23.8018602 12.0926481,23.8045676 L12.108256,23.8032389 L12.3092106,23.7104931 L12.3186497,23.7024347 L12.3186497,23.7024347 L12.3225043,23.6906389 L12.340401,23.2611114 L12.337245,23.2485176 L12.337245,23.2485176 L12.3277531,23.2396597 L12.1430473,23.1473072 Z" id="MingCute" fill-rule="nonzero"></path>
                <path d="M6.64131,7.31329 C7.96838,7.728 9.86312,8 11.9999,8 C14.1367,8 16.0314,7.728 17.3585,7.31329 C19.0009,6.80002 19.144,6.24468 17.3585,5.68671 C16.0314,5.272 14.1367,5 11.9999,5 C9.86312,5 7.96838,5.272 6.64131,5.68671 C4.86333,6.24233 5.02303,6.80758 6.64131,7.31329 Z M11.9999,3 C9.71838,3 7.61311,3.28764 6.04476,3.77775 C4.4902,4.26355 2.71611,5.2319 3.01152,7.15206 L4.54726,17.1344 C4.88549,19.3329 6.45054,21.2947 8.79411,21.7012 C9.75598,21.868 10.8708,22 11.9999,22 C13.1289,22 14.2438,21.868 15.2057,21.7012 C17.5492,21.2947 19.1143,19.3329 19.4525,17.1344 L20.9883,7.15206 C21.2837,5.23189 19.5096,4.26356 17.955,3.77775 C16.3867,3.28764 14.2814,3 11.9999,3 Z" id="形状" fill="#09244B"></path>
            </g>
        </g>
    </g>
</svg>

<svg xmlns="http://www.w3.org/2000/svg" width="24" height="24"><g fill="none" fill-rule="evenodd"><path d="M24 0v24H0V0h24ZM12.593 23.258l-.011.002-.071.035-.02.004-.014-.004-.071-.035c-.01-.004-.019-.001-.024.005l-.004.01-.017.428.005.02.01.013.104.074.015.004.012-.004.104-.074.012-.016.004-.017-.017-.427c-.002-.01-.009-.017-.017-.018Zm.265-.113-.013.002-.185.093-.01.01-.003.011.018.43.005.012.008.007.201.093c.012.004.023 0 .029-.008l.004-.014-.034-.614c-.003-.012-.01-.02-.02-.022Zm-.715.002a.023.023 0 0 0-.027.006l-.006.014-.034.614c0 .012.007.02.017.024l.015-.002.201-.093.01-.008.004-.011.017-.43-.003-.012-.01-.01-.184-.092Z"/><path fill="#09244B" d="M6.641 7.313C7.968 7.728 9.863 8 12 8s4.031-.272 5.358-.687c1.643-.513 1.786-1.068 0-1.626C16.032 5.272 14.138 5 12 5c-2.137 0-4.032.272-5.359.687-1.778.555-1.618 1.12 0 1.626ZM12 3c-2.282 0-4.387.288-5.955.778-1.555.486-3.329 1.454-3.033 3.374l1.535 9.982c.338 2.199 1.904 4.16 4.247 4.567.962.167 2.077.299 3.206.299a19.04 19.04 0 0 0 3.206-.299c2.343-.406 3.908-2.368 4.247-4.567l1.535-9.982c.296-1.92-1.478-2.888-3.033-3.374C16.387 3.288 14.281 3 12 3Z"/></g></svg>
